tools/download-figma-icons/icons/outlined-large/infothek.svg

<svg width="64" height="64" viewBox="0 0 64 64" fill="none" xmlns="http://www.w3.org/2000/svg">
<path fill-rule="evenodd" clip-rule="evenodd" d="M32.0001 4C24.574 4 17.4521 6.94999 12.2011 12.201C6.95009 17.452 4.0001 24.5739 4.0001 32C3.98582 37.2824 5.48118 42.4589 8.3101 46.92L5.8201 56.35C5.75408 56.6031 5.75541 56.8691 5.82396 57.1216C5.89251 57.3741 6.0259 57.6042 6.21089 57.7892C6.39587 57.9742 6.62602 58.1076 6.87849 58.1761C7.13095 58.2447 7.39696 58.246 7.6501 58.18L17.0801 55.69C21.5412 58.5189 26.7177 60.0143 32.0001 60C39.4262 60 46.5481 57.05 51.7991 51.799C57.0501 46.548 60.0001 39.4261 60.0001 32C60.0001 24.5739 57.0501 17.452 51.7991 12.201C46.5481 6.94999 39.4262 4 32.0001 4ZM32.0001 57C27.0772 57.0114 22.2626 55.5562 18.1701 52.82C17.9249 52.6551 17.6356 52.568 17.3401 52.57C17.2108 52.5505 17.0794 52.5505 16.9501 52.57L9.3801 54.57L11.3801 47C11.438 46.7944 11.4502 46.5786 11.4156 46.3678C11.381 46.157 11.3007 45.9563 11.1801 45.78C8.11021 41.133 6.67997 35.5939 7.11628 30.0415C7.55259 24.4892 9.83047 19.2415 13.5885 15.131C17.3466 11.0205 22.3696 8.28265 27.8608 7.35173C33.3519 6.42081 38.9967 7.35015 43.8995 9.99233C48.8024 12.6345 52.6826 16.8382 54.9245 21.9365C57.1664 27.0348 57.6418 32.7358 56.275 38.135C54.9083 43.5341 51.7778 48.3223 47.3801 51.7399C42.9825 55.1575 37.5696 57.0088 32.0001 57ZM31.5 24C33.1569 24 34.5 22.6569 34.5 21C34.5 19.3431 33.1569 18 31.5 18C29.8431 18 28.5 19.3431 28.5 21C28.5 22.6569 29.8431 24 31.5 24ZM34 28V41H35C35.5304 41 36.0391 41.2107 36.4142 41.5858C36.7893 41.9609 37 42.4696 37 43C37 43.5304 36.7893 44.0391 36.4142 44.4142C36.0391 44.7893 35.5304 45 35 45H29C28.4696 45 27.9609 44.7893 27.5858 44.4142C27.2107 44.0391 27 43.5304 27 43C27 42.4696 27.2107 41.9609 27.5858 41.5858C27.9609 41.2107 28.4696 41 29 41H30V31H29C28.4696 31 27.9609 30.7893 27.5858 30.4142C27.2107 30.0391 27 29.5304 27 29C27 28.4696 27.2107 27.9609 27.5858 27.5858C27.9609 27.2107 28.4696 27 29 27H33C33.2652 27 33.5196 27.1054 33.7071 27.2929C33.8946 27.4804 34 27.7348 34 28Z" fill="black"/>
</svg>

<svg xmlns="http://www.w3.org/2000/svg" width="64" height="64" fill="none" viewBox="0 0 64 64"><path fill="currentColor" fill-rule="evenodd" d="M32 4A28 28 0 0 0 4 32a27.7 27.7 0 0 0 4.31 14.92l-2.49 9.43a1.5 1.5 0 0 0 1.83 1.83l9.43-2.49A27.7 27.7 0 0 0 32 60a28 28 0 1 0 0-56m0 53a24.8 24.8 0 0 1-13.83-4.18 1.47 1.47 0 0 0-.83-.25q-.195-.03-.39 0l-7.57 2 2-7.57a1.46 1.46 0 0 0-.2-1.22A25 25 0 1 1 32 57m-.5-33a3 3 0 1 0 0-6 3 3 0 0 0 0 6m2.5 4v13h1a2 2 0 0 1 0 4h-6a2 2 0 0 1 0-4h1V31h-1a2 2 0 0 1 0-4h4a1 1 0 0 1 1 1" clip-rule="evenodd"/></svg>
